X: 108
T: Toss the Feathers no. 1
R: reel
Z: 2012 John Chambers <jc@trillian.mit.edu>
B: "100 Essential Irish Session Tunes" 1995 Dave Mallinson, ed.
M: 4/4
L: 1/8
K: Edor
|:\
"Em"EB~B2 dB~B2 | EBBA "D"FDFA | "Em"BE~E2 BABd |1 "C"egfe "D"dBAF :|2 "C"egfe "D"dBAe |]
"Em"Beed ((3efe) de | fede "Bm"fede | "Em"febe febe | fede "Bm"fede |
"Em"Beed ((3efe) de | "Bm"fedf "D"defa | "G"b3g "D"a3f | "C"g2fe "Bm"dBAF |]

%%sep 2 1 500
%%sep 1 1 500

